X: 28
T: Toss The Feathers
Z: tziguk
S: https://thesession.org/tunes/138#setting53547
R: reel
M: 4/4
L: 1/8
K: Dmix
|:D2AD FDAD|D2AG EFGE|D2AD F DAB|1cded cAGE:|2cAGE A DD2||
cd2e d2cd|edcd edcd|eaag e3g|edcd edcd|
eaag efge|d2 ed cAGE|D2ED EGAB|ced2 cAGE||

